newicons/rakuten_pointclub.svg

<?xml version="1.0" encoding="UTF-8" standalone="no"?>
<svg
   viewBox="0 0 48 48"
   version="1.1"
   id="svg1"
   sodipodi:docname="rakuten_pointclub.svg"
   inkscape:version="1.2.2 (b0a8486541, 2022-12-01)"
   xml:space="preserve"
   xmlns:inkscape="http://www.inkscape.org/namespaces/inkscape"
   xmlns:sodipodi="http://sodipodi.sourceforge.net/DTD/sodipodi-0.dtd"
   xmlns="http://www.w3.org/2000/svg"
   xmlns:svg="http://www.w3.org/2000/svg"><sodipodi:namedview
     id="namedview1"
     pagecolor="#505050"
     bordercolor="#eeeeee"
     borderopacity="1"
     inkscape:showpageshadow="0"
     inkscape:pageopacity="0"
     inkscape:pagecheckerboard="0"
     inkscape:deskcolor="#505050"
     inkscape:zoom="8.90625"
     inkscape:cx="9.5438596"
     inkscape:cy="43.340351"
     inkscape:window-width="1918"
     inkscape:window-height="1053"
     inkscape:window-x="0"
     inkscape:window-y="0"
     inkscape:window-maximized="1"
     inkscape:current-layer="svg1"
     showgrid="false" /><defs
     id="defs1"><style
       id="style1">.a { fill:none;stroke:#fff;stroke-linecap:round;stroke-linejoin:round; }
</style></defs><g
     id="g20072"><path
       style="fill:none;stroke:#ffffff;stroke-width:1;stroke-linecap:round;stroke-linejoin:round;stroke-opacity:1"
       d="M 12.242854,27.930536 A 12.827439,13.478007 0 0 1 11.257452,22.750022 12.827439,13.478007 0 0 1 24.08489,9.2720149 12.827439,13.478007 0 0 1 36.912329,22.750022 v 0 a 12.827439,13.478007 0 0 1 -0.985402,5.18051"
       id="path20038" /><path
       style="fill:none;stroke:#ffffff;stroke-width:1;stroke-linecap:round;stroke-linejoin:round;stroke-opacity:1"
       d="m 29.644115,34.896524 a 12.827439,13.478007 0 0 1 -5.559225,1.33151 12.827439,13.478007 0 0 1 -5.559226,-1.331511"
       id="path20036" /><path
       style="fill:none;stroke:#ffffff;stroke-width:1;stroke-linecap:round;stroke-linejoin:round;stroke-opacity:1"
       d="M 21.276758,24.688747 V 14.606926 h 3.290204 c 1.898195,0 3.416751,1.512274 3.416751,3.402616 0,1.890341 -1.518556,3.402613 -3.416751,3.402613 h -3.290204"
       id="path20032" /></g><g
     id="g20067"><path
       style="fill:none;stroke:#ffffff;stroke-width:1;stroke-linecap:round;stroke-linejoin:round;stroke-opacity:1"
       d="m 39.196919,34.882794 -3.84144,3.845188 h 7.144895 L 40.160485,35.272801 42.500374,31.81762 H 39.343915 V 27.920831 H 8.6560848 V 31.81762 H 5.4996259 l 2.3398889,3.455181 -2.3398889,3.455181 H 12.644521 L 8.8030806,34.882794 Z"
       id="path20034" /><g
       id="g20058"><path
         style="fill:none;stroke:#ffffff;stroke-width:1;stroke-linecap:round;stroke-linejoin:round;stroke-opacity:1"
         d="m 19.990499,29.239601 v 4.271036 h 2.002592"
         id="path20030" /><path
         style="fill:none;stroke:#ffffff;stroke-width:1;stroke-linecap:round;stroke-linejoin:round;stroke-opacity:1"
         d="m 25.155023,29.239602 v 2.829561 c 0,0.800819 0.600778,1.441474 1.301685,1.441474 0.700907,0 1.35175,-0.640655 1.35175,-1.441474 v -2.829561"
         id="path20028" /><path
         style="fill:none;stroke:#ffffff;stroke-width:1;stroke-linecap:round;stroke-linejoin:round;stroke-opacity:1"
         d="m 16.828565,32.043992 v 0 c 0,0.80082 -0.600778,1.441475 -1.35175,1.441475 v 0 c -0.750971,0 -1.351749,-0.640655 -1.351749,-1.388086 v -1.441475 c 0,-0.800819 0.600778,-1.441474 1.351749,-1.388087 v 0 c 0.750972,0 1.301685,0.640655 1.301685,1.388087 v 0"
         id="path20026" /><path
         style="fill:none;stroke:#ffffff;stroke-width:1;stroke-linecap:round;stroke-linejoin:round;stroke-opacity:1"
         d="m 32.672595,31.375119 c 0.550713,0 1.001296,0.480491 1.001296,1.067759 0,0.587267 -0.450583,1.067759 -1.001296,1.067759 h -1.652139 v -4.271036 h 1.652139 c 0.550713,0 1.001296,0.480491 1.001296,1.067759 0,0.587267 -0.450583,1.067759 -1.001296,1.067759 z"
         id="path20024" /><path
         style="fill:none;stroke:#ffffff;stroke-width:1;stroke-linecap:round;stroke-linejoin:round;stroke-opacity:1"
         d="M 32.672593,31.375119 H 30.970391"
         id="line5610" /></g></g></svg>

<?xml version="1.0" encoding="UTF-8"?><svg id="a" xmlns="http://www.w3.org/2000/svg" viewBox="0 0 48 48"><defs><style>.n{fill:none;stroke:#fff;stroke-linecap:round;stroke-linejoin:round;}</style></defs><g id="b"><path id="c" class="n" d="M12.2431,27.9305c-.6505-1.6416-.9854-3.4022-.9854-5.1804,0-7.4435,5.7429-13.4777,12.8272-13.4777h0c7.0843,0,12.8272,6.0342,12.8272,13.4777h0c0,1.7782-.3349,3.5388-.9854,5.1804"/><path id="d" class="n" d="M29.644,34.8963c-1.7345.8764-3.6345,1.3315-5.5591,1.3315s-3.8246-.4551-5.5591-1.3315"/><path id="e" class="n" d="M21.2768,24.6887v-10.0816h3.2901c1.8982,0,3.4167,1.5122,3.4167,3.4025s-1.5185,3.4025-3.4167,3.4025h-3.2901"/></g><g id="f"><path id="g" class="n" d="M39.1966,34.8826l-3.8414,3.8451h7.1447l-2.3398-3.4551,2.3398-3.4551h-3.1564v-3.8967H8.6564v3.8967h-3.1564l2.3398,3.4551-2.3398,3.4551h7.1448l-3.8414-3.8451h30.3932Z"/><g id="h"><path id="i" class="n" d="M19.9906,29.2395v4.2709h2.0026"/><path id="j" class="n" d="M25.155,29.2395v2.8295c0,.8008.6008,1.4414,1.3017,1.4414s1.3517-.6406,1.3517-1.4414v-2.8295"/><path id="k" class="n" d="M16.8287,32.0438h0c0,.8008-.6008,1.4414-1.3517,1.4414h0c-.751,0-1.3517-.6406-1.3517-1.3881v-1.4414c0-.8008.6008-1.4414,1.3517-1.3881h0c.751,0,1.3017.6406,1.3017,1.3881h0"/><path id="l" class="n" d="M32.6724,31.375c.5507,0,1.0013.4805,1.0013,1.0677s-.4506,1.0677-1.0013,1.0677h-1.6521v-4.2709h1.6521c.5507,0,1.0013.4805,1.0013,1.0677s-.4506,1.0677-1.0013,1.0677Z"/><path id="m" class="n" d="M32.6724,31.375h-1.7022"/></g></g></svg>
